SVG_Azure_Grouped/Networking/NAT Gateway.svg

<?xml version="1.0" encoding="UTF-8" standalone="no"?>
<!-- Generated by Microsoft Visio, SVG Export NAT Gateway.svg Page-1 -->

<svg
   xmlns:dc="http://purl.org/dc/elements/1.1/"
   xmlns:cc="http://creativecommons.org/ns#"
   xmlns:rdf="http://www.w3.org/1999/02/22-rdf-syntax-ns#"
   xmlns:svg="http://www.w3.org/2000/svg"
   xmlns="http://www.w3.org/2000/svg"
   xmlns:sodipodi="http://sodipodi.sourceforge.net/DTD/sodipodi-0.dtd"
   xmlns:inkscape="http://www.inkscape.org/namespaces/inkscape"
   width="0.76629466in"
   height="0.76629466in"
   viewBox="0 0 55.173483 55.17309"
   xml:space="preserve"
   class="st5"
   version="1.1"
   id="svg67"
   sodipodi:docname="NAT Gateway.svg"
   style="font-size:12px;overflow:visible;color-interpolation-filters:sRGB;fill:none;fill-rule:evenodd;stroke-linecap:square;stroke-miterlimit:3"
   inkscape:version="0.92.5 (2060ec1f9f, 2020-04-08)"><metadata
   id="metadata71"><rdf:RDF><cc:Work
       rdf:about=""><dc:format>image/svg+xml</dc:format><dc:type
         rdf:resource="http://purl.org/dc/dcmitype/StillImage" /></cc:Work></rdf:RDF></metadata><sodipodi:namedview
   pagecolor="#ffffff"
   bordercolor="#666666"
   borderopacity="1"
   objecttolerance="10"
   gridtolerance="10"
   guidetolerance="10"
   inkscape:pageopacity="0"
   inkscape:pageshadow="2"
   inkscape:window-width="640"
   inkscape:window-height="480"
   id="namedview69"
   showgrid="false"
   inkscape:zoom="1.4280265"
   inkscape:cx="36.780163"
   inkscape:cy="36.265048"
   inkscape:window-x="0"
   inkscape:window-y="0"
   inkscape:window-maximized="0"
   inkscape:current-layer="svg67" />
	<style
   type="text/css"
   id="style2">
	<![CDATA[
		.st1 {fill:url(#grad0-6);stroke:none;stroke-linecap:butt;stroke-width:34}
		.st2 {fill:#9cebff;stroke:none;stroke-linecap:butt;stroke-width:34}
		.st3 {fill:#ffffff;stroke:none;stroke-linecap:butt;stroke-width:34}
		.st4 {fill:#86d633;stroke:none;stroke-linecap:butt;stroke-width:34}
		.st5 {fill:none;fill-rule:evenodd;font-size:12px;overflow:visible;stroke-linecap:square;stroke-miterlimit:3}
	]]>
	</style>

	<defs
   id="Patterns_And_Gradients">
		<linearGradient
   id="grad0-6"
   x1="-1.5302749e-06"
   y1="83.859998"
   x2="40.090002"
   y2="83.859998"
   gradientUnits="userSpaceOnUse">
			<stop
   offset="0"
   stop-color="#238ab0"
   stop-opacity="1"
   id="stop4" />
			<stop
   offset="0.11"
   stop-color="#2da4c8"
   stop-opacity="1"
   id="stop6" />
			<stop
   offset="0.775"
   stop-color="#3ed3f2"
   stop-opacity="1"
   id="stop8" />
		</linearGradient>
	</defs>
	<g
   id="g65"
   transform="translate(-34.000244,-33.999376)">
		<title
   id="title12">Page-1</title>
		<g
   id="group17830-1"
   transform="translate(33.2388,-34.0157)">
			<title
   id="title14">NAT Gateway.17830</title>
			<g
   id="group17831-2">
				<title
   id="title16">Icon-310-NATService</title>
				<g
   id="shape17832-3"
   transform="rotate(-45,14.17323,89.730356)">
					<title
   id="title18">Sheet.17832</title>
					<path
   d="m 0,122.11 a 1.83763,1.83763 -180 0 0 1.84,1.84 h 36.41 a 1.83763,1.83763 -180 0 0 1.84,-1.84 V 85.7 A 1.83763,1.83763 -180 0 0 38.25,83.86 H 1.84 A 1.83763,1.83763 -180 0 0 0,85.7 Z"
   class="st1"
   id="path20"
   inkscape:connector-curvature="0"
   style="fill:url(#grad0-6);stroke:none;stroke-width:34;stroke-linecap:butt" />
				</g>
				<g
   id="shape17833-7"
   transform="translate(12.1431,-11.0433)">
					<title
   id="title23">Sheet.17833</title>
					<path
   d="m 32.04,109.96 -1.12,-1.11 v -4.29 h -8.88 v 4.73 h 3.98 l -10,10.01 -10.01,-10.01 h 4.05 v -4.73 H 0.3 v 4.73 h 0.37 l -0.67,0.67 13.99,13.99 2.03,-2.03 2.03,2.03 z"
   class="st2"
   id="path25"
   inkscape:connector-curvature="0"
   style="fill:#9cebff;stroke:none;stroke-width:34;stroke-linecap:butt" />
				</g>
				<g
   id="shape17834-9"
   transform="rotate(-45.121,-19.030345,98.029691)">
					<title
   id="title28">Sheet.17834</title>
					<ellipse
   cx="4.9033298"
   cy="119.019"
   rx="4.9033298"
   ry="4.9282098"
   class="st3"
   id="ellipse30"
   style="fill:#ffffff;stroke:none;stroke-width:34;stroke-linecap:butt" />
				</g>
				<g
   id="shape17835-11"
   transform="rotate(-45.061,-22.681608,96.520786)">
					<title
   id="title33">Sheet.17835</title>
					<ellipse
   cx="2.7859099"
   cy="121.134"
   rx="2.7859099"
   ry="2.8139"
   class="st4"
   id="ellipse35"
   style="fill:#86d633;stroke:none;stroke-width:34;stroke-linecap:butt" />
				</g>
				<g
   id="shape17836-13"
   transform="rotate(-45.121,-3.4232976,60.470664)">
					<title
   id="title38">Sheet.17836</title>
					<ellipse
   cx="4.9033298"
   cy="119.019"
   rx="4.9033298"
   ry="4.9282098"
   class="st3"
   id="ellipse40"
   style="fill:#ffffff;stroke:none;stroke-width:34;stroke-linecap:butt" />
				</g>
				<g
   id="shape17837-15"
   transform="rotate(-45.061,-7.0715051,58.906316)">
					<title
   id="title43">Sheet.17837</title>
					<ellipse
   cx="2.7859099"
   cy="121.134"
   rx="2.7859099"
   ry="2.8139"
   class="st4"
   id="ellipse45"
   style="fill:#86d633;stroke:none;stroke-width:34;stroke-linecap:butt" />
				</g>
				<g
   id="shape17838-17"
   transform="translate(21.4879,-8.34446)">
					<title
   id="title48">Sheet.17838</title>
					<path
   d="M 13.2,90.91 6.99,84.69 a 0.466392,0.466392 -180 0 0 -0.662277,0 L 0.1,90.91 a 0.466392,0.466392 -180 0 0 0.329584,0.799085 L 3.96,91.7 a 0.332693,0.332693 0 0 1 0.332693,0.332693 L 4.3,123.95 H 9.04 V 92.04 A 0.332693,0.332693 0 0 1 9.350928,91.707307 L 12.86,91.7 a 0.466392,0.466392 -180 0 0 0.338911,-0.799085 z"
   class="st3"
   id="path50"
   inkscape:connector-curvature="0"
   style="fill:#ffffff;stroke:none;stroke-width:34;stroke-linecap:butt" />
				</g>
				<g
   id="shape17839-19"
   transform="rotate(-45.121,7.5743276,87.326027)">
					<title
   id="title53">Sheet.17839</title>
					<ellipse
   cx="4.9033298"
   cy="119.019"
   rx="4.9033298"
   ry="4.9282098"
   class="st3"
   id="ellipse55"
   style="fill:#ffffff;stroke:none;stroke-width:34;stroke-linecap:butt" />
				</g>
				<g
   id="shape17840-21"
   transform="rotate(-45.061,3.954022,85.78653)">
					<title
   id="title58">Sheet.17840</title>
					<ellipse
   cx="2.7859099"
   cy="121.134"
   rx="2.7859099"
   ry="2.8139"
   class="st4"
   id="ellipse60"
   style="fill:#86d633;stroke:none;stroke-width:34;stroke-linecap:butt" />
				</g>
			</g>
		</g>
	</g>
</svg>

<?xml version="1.0" encoding="UTF-8" standalone="no"?>
<!DOCTYPE svg PUBLIC "-//W3C//DTD SVG 1.1//EN" "http://www.w3.org/Graphics/SVG/1.1/DTD/svg11.dtd">
<!-- Generated by Microsoft Visio, SVG Export NAT Gateway.svg Page-1 -->
<svg xmlns="http://www.w3.org/2000/svg" xmlns:xlink="http://www.w3.org/1999/xlink" xmlns:ev="http://www.w3.org/2001/xml-events"
		width="1.7107in" height="1.72149in" viewBox="0 0 123.171 123.947" xml:space="preserve" color-interpolation-filters="sRGB"
		class="st5">
	<style type="text/css">
	<![CDATA[
		.st1 {fill:url(#grad0-6);stroke:none;stroke-linecap:butt;stroke-width:34}
		.st2 {fill:#9cebff;stroke:none;stroke-linecap:butt;stroke-width:34}
		.st3 {fill:#ffffff;stroke:none;stroke-linecap:butt;stroke-width:34}
		.st4 {fill:#86d633;stroke:none;stroke-linecap:butt;stroke-width:34}
		.st5 {fill:none;fill-rule:evenodd;font-size:12px;overflow:visible;stroke-linecap:square;stroke-miterlimit:3}
	]]>
	</style>

	<defs id="Patterns_And_Gradients">
		<linearGradient id="grad0-6" x1="0" y1="0" x2="1" y2="0" gradientTransform="rotate(-45 0.5 0.5)">
			<stop offset="0" stop-color="#238ab0" stop-opacity="1"/>
			<stop offset="0.11" stop-color="#2da4c8" stop-opacity="1"/>
			<stop offset="0.775" stop-color="#3ed3f2" stop-opacity="1"/>
		</linearGradient>
	</defs>
	<g>
		<title>Page-1</title>
		<g id="group17433-1" transform="translate(33.2388,-34.0157)">
			<title>NAT Gateway.17433</title>
			<g id="group17434-2">
				<title>Icon-310-NATService</title>
				<g id="shape17435-3" transform="translate(-59.2977,36.3034) rotate(-45)">
					<title>Sheet.17435</title>
					<path d="M0 122.11 A1.83763 1.83763 -180 0 0 1.84 123.95 L38.25 123.95 A1.83763 1.83763 -180 0 0 40.09 122.11
								 L40.09 85.7 A1.83763 1.83763 -180 0 0 38.25 83.86 L1.84 83.86 A1.83763 1.83763 -180 0 0 -0 85.7
								 L0 122.11 Z" class="st1"/>
				</g>
				<g id="shape17436-7" transform="translate(12.1431,-11.0433)">
					<title>Sheet.17436</title>
					<path d="M32.04 109.96 L30.92 108.85 L30.92 104.56 L22.04 104.56 L22.04 109.29 L26.02 109.29 L16.02 119.3 L6.01
								 109.29 L10.06 109.29 L10.06 104.56 L0.3 104.56 L0.3 109.29 L0.67 109.29 L0 109.96 L13.99 123.95
								 L16.02 121.92 L18.05 123.95 L32.04 109.96 Z" class="st2"/>
				</g>
				<g id="shape17437-9" transform="translate(-75.066,15.3739) rotate(-45.121)">
					<title>Sheet.17437</title>
					<ellipse cx="4.90333" cy="119.019" rx="4.90333" ry="4.92821" class="st3"/>
				</g>
				<g id="shape17438-11" transform="translate(-74.9835,12.2876) rotate(-45.061)">
					<title>Sheet.17438</title>
					<ellipse cx="2.78591" cy="121.134" rx="2.78591" ry="2.8139" class="st4"/>
				</g>
				<g id="shape17439-13" transform="translate(-43.8572,15.3761) rotate(-45.121)">
					<title>Sheet.17439</title>
					<ellipse cx="4.90333" cy="119.019" rx="4.90333" ry="4.92821" class="st3"/>
				</g>
				<g id="shape17440-15" transform="translate(-43.7739,12.292) rotate(-45.061)">
					<title>Sheet.17440</title>
					<ellipse cx="2.78591" cy="121.134" rx="2.78591" ry="2.8139" class="st4"/>
				</g>
				<g id="shape17441-17" transform="translate(21.4879,-8.34446)">
					<title>Sheet.17441</title>
					<path d="M13.2 90.91 L6.99 84.69 a0.466392 0.466392 -180 0 0 -0.662277 -9.9476E-14 L0.1 90.91 a0.466392 0.466392
								 -180 0 0 0.329584 0.799085 L3.96 91.7 a0.332693 0.332693 0 0 1 0.332693 0.332693 L4.3 123.95 L9.04
								 123.95 L9.04 92.04 a0.332693 0.332693 0 0 1 0.310928 -0.332693 L12.86 91.7 a0.466392 0.466392 -180
								 0 0 0.338911 -0.799085 Z" class="st3"/>
				</g>
				<g id="shape17442-19" transform="translate(-59.6493,31.0749) rotate(-45.121)">
					<title>Sheet.17442</title>
					<ellipse cx="4.90333" cy="119.019" rx="4.90333" ry="4.92821" class="st3"/>
				</g>
				<g id="shape17443-21" transform="translate(-59.5637,27.9898) rotate(-45.061)">
					<title>Sheet.17443</title>
					<ellipse cx="2.78591" cy="121.134" rx="2.78591" ry="2.8139" class="st4"/>
				</g>
			</g>
		</g>
	</g>
</svg>
